Sources/FrostedUI/Resources/Icons.xcassets/usd12.imageset/usd-12.svg

<svg
  width="12"
  height="12"
  viewBox="0 0 12 12"
  fill="none"
  xmlns="http://www.w3.org/2000/svg"
  data-fui-icon="true"
>
  <circle
    cx="6"
    cy="6"
    r="5.25"
    stroke="currentColor"
    stroke-width="1.5"
    stroke-linecap="round"
    stroke-linejoin="round"
  />
  <path
    d="M4.25 8.25H7.125C7.74632 8.25 8.25 7.74632 8.25 7.125V7.125C8.25 6.50368 7.74632 6 7.125 6H4.875C4.25368 6 3.75 5.49632 3.75 4.875V4.875C3.75 4.25368 4.25368 3.75 4.875 3.75H7.75M6 8.25L6 9.25M6 2.75L6 3.75"
    stroke="currentColor"
    stroke-width="1.5"
    stroke-linecap="round"
    stroke-linejoin="round"
  />
</svg>

<svg xmlns="http://www.w3.org/2000/svg" width="12" height="12" fill="none" data-fui-icon="true" viewBox="0 0 12 12"><circle cx="6" cy="6" r="5.25" stroke="currentColor" stroke-linecap="round" stroke-linejoin="round" stroke-width="1.5"/><path stroke="currentColor" stroke-linecap="round" stroke-linejoin="round" stroke-width="1.5" d="M4.25 8.25h2.875c.621 0 1.125-.504 1.125-1.125v0C8.25 6.504 7.746 6 7.125 6h-2.25A1.125 1.125 0 0 1 3.75 4.875v0c0-.621.504-1.125 1.125-1.125H7.75M6 8.25v1m0-6.5v1"/></svg>
